img/logo.svg

<svg width="150" height="27" viewBox="0 0 150 27" fill="none" xmlns="http://www.w3.org/2000/svg">
<path d="M0.82 1.4H15.576V5.46H5.16V8.652H10.088C12.216 8.652 13.8867 9.14667 15.1 10.136C16.3133 11.1067 16.92 12.628 16.92 14.7C16.92 18.9 14.204 21 8.772 21H0.82V1.4ZM9.108 12.712H5.16V16.94H8.94C9.40667 16.94 9.808 16.9213 10.144 16.884C10.4987 16.828 10.8627 16.7347 11.236 16.604C11.6093 16.4547 11.8987 16.2213 12.104 15.904C12.3093 15.5867 12.412 15.1947 12.412 14.728C12.412 14.28 12.3093 13.916 12.104 13.636C11.9173 13.3373 11.6373 13.132 11.264 13.02C10.9093 12.8893 10.5733 12.8053 10.256 12.768C9.93867 12.7307 9.556 12.712 9.108 12.712ZM20.8971 11.312L18.9651 8.372C19.6744 7.60667 20.6171 7.04667 21.7931 6.692C22.9878 6.31867 24.1824 6.132 25.3771 6.132C27.2624 6.132 28.7278 6.664 29.7731 7.728C30.8184 8.792 31.3411 10.276 31.3411 12.18V21H27.2811V19.684C26.8704 20.1507 26.2824 20.5147 25.5171 20.776C24.7704 21.0373 24.0518 21.168 23.3611 21.168C21.8304 21.168 20.5611 20.748 19.5531 19.908C18.5451 19.068 18.0411 17.9013 18.0411 16.408C18.0411 15.2693 18.3958 14.3267 19.1051 13.58C19.8144 12.8333 20.6358 12.32 21.5691 12.04C22.5211 11.76 23.5478 11.62 24.6491 11.62C25.7504 11.62 26.6278 11.7413 27.2811 11.984C27.3184 11.2747 27.1318 10.752 26.7211 10.416C26.2918 10.08 25.6944 9.912 24.9291 9.912C23.5664 9.912 22.2224 10.3787 20.8971 11.312ZM24.2011 17.668C24.8171 17.668 25.4144 17.5187 25.9931 17.22C26.5904 16.9213 27.0198 16.52 27.2811 16.016V15.344C26.6278 15.1013 25.8904 14.98 25.0691 14.98C24.4344 14.98 23.8931 15.036 23.4451 15.148C22.6424 15.4093 22.2411 15.8293 22.2411 16.408C22.2411 16.856 22.4371 17.1827 22.8291 17.388C23.2398 17.5747 23.6971 17.668 24.2011 17.668ZM37.8434 26.6H33.7834V6.44H37.8434V7.196C38.1981 6.86 38.6928 6.59867 39.3274 6.412C39.9621 6.22533 40.5501 6.132 41.0914 6.132C43.2754 6.132 45.0114 6.82267 46.2994 8.204C47.6061 9.58533 48.2594 11.3493 48.2594 13.496C48.2594 15.7173 47.5874 17.5653 46.2434 19.04C44.8994 20.496 43.1448 21.224 40.9794 21.224C39.2621 21.224 38.2168 20.9813 37.8434 20.496V26.6ZM40.6434 9.912C39.3928 9.912 38.4594 10.4627 37.8434 11.564V16.212C38.0674 16.5853 38.4314 16.884 38.9354 17.108C39.4394 17.332 39.9341 17.444 40.4194 17.444C41.5208 17.444 42.3981 17.1173 43.0514 16.464C43.7234 15.792 44.0594 14.9053 44.0594 13.804C44.0594 12.6093 43.7794 11.6667 43.2194 10.976C42.6594 10.2667 41.8008 9.912 40.6434 9.912ZM62.9883 0.195999L63.6883 3.864C62.755 4.29333 61.5696 4.592 60.1323 4.76C58.5456 4.96533 57.5843 5.11467 57.2483 5.208C54.747 5.824 53.375 7.21467 53.1323 9.38C54.271 7.98 55.979 7.28 58.2563 7.28C60.2536 7.28 61.8496 7.88667 63.0443 9.1C64.2576 10.2947 64.8643 11.872 64.8643 13.832C64.8643 16.0907 64.183 17.9013 62.8203 19.264C61.4576 20.608 59.675 21.28 57.4723 21.28C54.915 21.28 52.9456 20.468 51.5643 18.844C50.2016 17.2013 49.5203 15.1013 49.5203 12.544C49.5203 9.072 50.211 6.43067 51.5923 4.62C52.9923 2.79067 55.307 1.66133 58.5363 1.232C60.235 1.008 61.3363 0.811998 61.8403 0.643998C62.251 0.531999 62.6336 0.382666 62.9883 0.195999ZM53.7203 13.216V13.664C53.7203 14.6907 54.0843 15.5867 54.8123 16.352C55.559 17.1173 56.4363 17.5 57.4443 17.5C58.4896 17.5 59.283 17.2013 59.8243 16.604C60.3843 15.988 60.6643 15.148 60.6643 14.084C60.6643 13.1133 60.3843 12.3667 59.8243 11.844C59.2643 11.3213 58.499 11.06 57.5283 11.06C55.755 11.06 54.4856 11.7787 53.7203 13.216ZM77.682 15.848L80.118 18.312C78.5686 20.2533 76.478 21.224 73.846 21.224C71.5126 21.224 69.618 20.5333 68.162 19.152C66.706 17.7707 65.978 15.9507 65.978 13.692C65.978 11.396 66.6686 9.56667 68.05 8.204C69.45 6.82267 71.2793 6.132 73.538 6.132C75.5726 6.132 77.234 6.748 78.522 7.98C79.8286 9.212 80.482 10.8267 80.482 12.824C80.482 13.3467 80.4073 14.1307 80.258 15.176H70.234C70.4206 15.9413 70.8593 16.5107 71.55 16.884C72.2406 17.2573 73.0246 17.444 73.902 17.444C75.5446 17.444 76.8046 16.912 77.682 15.848ZM73.398 9.772C71.8486 9.772 70.822 10.4067 70.318 11.676H76.282C75.946 10.4067 74.9846 9.772 73.398 9.772ZM86.3513 26.6H82.2913V6.44H86.3513V7.196C86.7059 6.86 87.2006 6.59867 87.8353 6.412C88.4699 6.22533 89.0579 6.132 89.5993 6.132C91.7833 6.132 93.5193 6.82267 94.8073 8.204C96.1139 9.58533 96.7673 11.3493 96.7673 13.496C96.7673 15.7173 96.0953 17.5653 94.7513 19.04C93.4073 20.496 91.6526 21.224 89.4873 21.224C87.7699 21.224 86.7246 20.9813 86.3513 20.496V26.6ZM89.1513 9.912C87.9006 9.912 86.9673 10.4627 86.3513 11.564V16.212C86.5753 16.5853 86.9393 16.884 87.4433 17.108C87.9473 17.332 88.4419 17.444 88.9273 17.444C90.0286 17.444 90.9059 17.1173 91.5593 16.464C92.2313 15.792 92.5673 14.9053 92.5673 13.804C92.5673 12.6093 92.2873 11.6667 91.7273 10.976C91.1673 10.2667 90.3086 9.912 89.1513 9.912ZM117.04 21H98.5881V6.44H102.648V17.22H105.784V6.44H109.844V17.22H112.98V6.44H117.04V21ZM118.861 13.692C118.861 11.452 119.617 9.632 121.129 8.232C122.641 6.832 124.507 6.132 126.729 6.132C128.987 6.132 130.873 6.84133 132.385 8.26C133.897 9.66 134.653 11.4707 134.653 13.692C134.653 15.932 133.887 17.752 132.357 19.152C130.826 20.5333 128.95 21.224 126.729 21.224C124.507 21.224 122.641 20.5147 121.129 19.096C119.617 17.6773 118.861 15.876 118.861 13.692ZM123.061 13.692C123.061 14.756 123.406 15.652 124.097 16.38C124.806 17.0893 125.683 17.444 126.729 17.444C127.849 17.444 128.745 17.0987 129.417 16.408C130.107 15.7173 130.453 14.812 130.453 13.692C130.453 12.5907 130.107 11.6853 129.417 10.976C128.726 10.2667 127.83 9.912 126.729 9.912C125.627 9.912 124.741 10.2667 124.069 10.976C123.397 11.6853 123.061 12.5907 123.061 13.692ZM149.983 21H145.923V10.22H140.519V21H136.459V6.44H149.983V21Z" fill="black"/>
</svg>

<svg width="150" height="27" fill="none" xmlns="http://www.w3.org/2000/svg"><path d="M.82 1.4h14.756v4.06H5.16v3.192h4.928c2.128 0 3.799.495 5.012 1.484 1.213.97 1.82 2.492 1.82 4.564 0 4.2-2.716 6.3-8.148 6.3H.82V1.4Zm8.288 11.312H5.16v4.228h3.78c.467 0 .868-.019 1.204-.056.355-.056.719-.15 1.092-.28.373-.15.663-.383.868-.7.205-.317.308-.71.308-1.176 0-.448-.103-.812-.308-1.092-.187-.299-.467-.504-.84-.616a4.42 4.42 0 0 0-1.008-.252c-.317-.037-.7-.056-1.148-.056Zm11.79-1.4-1.933-2.94c.71-.765 1.652-1.325 2.828-1.68 1.195-.373 2.39-.56 3.584-.56 1.885 0 3.35.532 4.396 1.596 1.045 1.064 1.568 2.548 1.568 4.452V21h-4.06v-1.316c-.41.467-.999.83-1.764 1.092-.747.261-1.465.392-2.156.392-1.53 0-2.8-.42-3.808-1.26-1.008-.84-1.512-2.007-1.512-3.5 0-1.139.355-2.081 1.064-2.828.71-.747 1.53-1.26 2.464-1.54.952-.28 1.979-.42 3.08-.42s1.979.121 2.632.364c.037-.71-.15-1.232-.56-1.568-.43-.336-1.027-.504-1.792-.504-1.363 0-2.707.467-4.032 1.4Zm3.303 6.356c.616 0 1.213-.15 1.792-.448.597-.299 1.027-.7 1.288-1.204v-.672c-.653-.243-1.39-.364-2.212-.364-.635 0-1.176.056-1.624.168-.803.261-1.204.681-1.204 1.26 0 .448.196.775.588.98.41.187.868.28 1.372.28ZM37.843 26.6h-4.06V6.44h4.06v.756c.355-.336.85-.597 1.484-.784.635-.187 1.223-.28 1.764-.28 2.184 0 3.92.69 5.208 2.072 1.307 1.381 1.96 3.145 1.96 5.292 0 2.221-.672 4.07-2.016 5.544-1.344 1.456-3.098 2.184-5.264 2.184-1.717 0-2.762-.243-3.136-.728V26.6Zm2.8-16.688c-1.25 0-2.184.55-2.8 1.652v4.648c.224.373.588.672 1.092.896.504.224 1 .336 1.484.336 1.102 0 1.98-.327 2.632-.98.672-.672 1.008-1.559 1.008-2.66 0-1.195-.28-2.137-.84-2.828-.56-.71-1.418-1.064-2.576-1.064ZM62.988.196l.7 3.668c-.933.43-2.118.728-3.556.896-1.586.205-2.548.355-2.884.448-2.501.616-3.873 2.007-4.116 4.172 1.139-1.4 2.847-2.1 5.124-2.1 1.998 0 3.594.607 4.788 1.82 1.214 1.195 1.82 2.772 1.82 4.732 0 2.259-.681 4.07-2.044 5.432-1.362 1.344-3.145 2.016-5.348 2.016-2.557 0-4.526-.812-5.908-2.436-1.362-1.643-2.044-3.743-2.044-6.3 0-3.472.691-6.113 2.072-7.924 1.4-1.83 3.715-2.959 6.944-3.388 1.699-.224 2.8-.42 3.304-.588.411-.112.794-.261 1.148-.448Zm-9.268 13.02v.448c0 1.027.364 1.923 1.092 2.688.747.765 1.624 1.148 2.632 1.148 1.046 0 1.839-.299 2.38-.896.56-.616.84-1.456.84-2.52 0-.97-.28-1.717-.84-2.24-.56-.523-1.325-.784-2.296-.784-1.773 0-3.042.719-3.808 2.156Zm23.962 2.632 2.436 2.464c-1.55 1.941-3.64 2.912-6.272 2.912-2.333 0-4.228-.69-5.684-2.072-1.456-1.381-2.184-3.201-2.184-5.46 0-2.296.69-4.125 2.072-5.488 1.4-1.381 3.23-2.072 5.488-2.072 2.035 0 3.696.616 4.984 1.848 1.307 1.232 1.96 2.847 1.96 4.844 0 .523-.075 1.307-.224 2.352H70.234a2.547 2.547 0 0 0 1.316 1.708c.69.373 1.475.56 2.352.56 1.643 0 2.903-.532 3.78-1.596Zm-4.284-6.076c-1.55 0-2.576.635-3.08 1.904h5.964c-.336-1.27-1.297-1.904-2.884-1.904ZM86.351 26.6h-4.06V6.44h4.06v.756c.355-.336.85-.597 1.484-.784.635-.187 1.223-.28 1.764-.28 2.184 0 3.92.69 5.208 2.072 1.307 1.381 1.96 3.145 1.96 5.292 0 2.221-.672 4.07-2.016 5.544-1.344 1.456-3.098 2.184-5.264 2.184-1.717 0-2.762-.243-3.136-.728V26.6Zm2.8-16.688c-1.25 0-2.184.55-2.8 1.652v4.648c.224.373.588.672 1.092.896.504.224.999.336 1.484.336 1.102 0 1.979-.327 2.632-.98.672-.672 1.008-1.559 1.008-2.66 0-1.195-.28-2.137-.84-2.828-.56-.71-1.418-1.064-2.576-1.064ZM117.04 21H98.588V6.44h4.06v10.78h3.136V6.44h4.06v10.78h3.136V6.44h4.06V21Zm1.821-7.308c0-2.24.756-4.06 2.268-5.46 1.512-1.4 3.378-2.1 5.6-2.1 2.258 0 4.144.71 5.656 2.128 1.512 1.4 2.268 3.21 2.268 5.432 0 2.24-.766 4.06-2.296 5.46-1.531 1.381-3.407 2.072-5.628 2.072-2.222 0-4.088-.71-5.6-2.128-1.512-1.419-2.268-3.22-2.268-5.404Zm4.2 0c0 1.064.345 1.96 1.036 2.688.709.71 1.586 1.064 2.632 1.064 1.12 0 2.016-.345 2.688-1.036.69-.69 1.036-1.596 1.036-2.716 0-1.101-.346-2.007-1.036-2.716-.691-.71-1.587-1.064-2.688-1.064-1.102 0-1.988.355-2.66 1.064-.672.71-1.008 1.615-1.008 2.716ZM149.983 21h-4.06V10.22h-5.404V21h-4.06V6.44h13.524V21Z" fill="#000"/></svg>
